packages/foundations/assets/icons/functional/images/environment/water_drop_20_filled.svg

<svg width="20" height="20" viewBox="0 0 20 20" fill="none" xmlns="http://www.w3.org/2000/svg">
<g clip-path="url(#clip0_2204_3026)">
<path fill-rule="evenodd" clip-rule="evenodd" d="M14.4326 7.39646C14.4326 7.39646 12.2575 4.15883 11.2669 2.6719C11.2038 2.57815 11.1281 2.49814 11.0437 2.43314C10.7644 2.15813 10.3868 2 9.98683 2H9.9837C9.47993 2.00125 9.01242 2.25251 8.7324 2.6719C7.74299 4.15633 5.57353 7.38584 5.57416 7.38584C4.47224 8.9809 3.91284 10.4866 3.91284 11.8616C3.91284 15.3618 6.52982 18 9.99995 18C13.4701 18 16.0871 15.3611 16.0871 11.8616C16.0871 10.4866 15.527 8.98152 14.4326 7.39646Z" fill="#1A1C1F"/>
</g>
<defs>
<clipPath id="clip0_2204_3026">
<rect width="20" height="20" fill="white"/>
</clipPath>
</defs>
</svg>

<svg xmlns="http://www.w3.org/2000/svg" width="20" height="20" fill="none"><g clip-path="url(#a)"><path fill="#1A1C1F" fill-rule="evenodd" d="M14.433 7.396s-2.175-3.237-3.166-4.724a1 1 0 0 0-.223-.239A1.5 1.5 0 0 0 9.987 2h-.003a1.5 1.5 0 0 0-1.252.672c-.989 1.484-3.158 4.714-3.158 4.714-1.102 1.595-1.661 3.1-1.661 4.476C3.913 15.362 6.53 18 10 18s6.087-2.639 6.087-6.138c0-1.375-.56-2.88-1.654-4.466" clip-rule="evenodd"/></g><defs><clipPath id="a"><path fill="#fff" d="M0 0h20v20H0z"/></clipPath></defs></svg>
